public/images/icons/32x32/ecriture_32_white.svg

<svg height="32" viewBox="0 0 32 32" width="32" xmlns="http://www.w3.org/2000/svg"><path d="m11.84784 2.52714667.48-.704c.1104-.19626667.1392-.4224.0816-.62293334-.0576-.20053333-.1968-.37546666-.4224-.4992-.2256-.1024-.4752-.128-.7008-.0768s-.4512.17493334-.5616.37546667l-.4512.69973333zm-10.3824 12.20266663-.5616 2.4789334.2784.1237333.2544.1493333 2.1408-1.6768zm-.336 3.2768-.5088.7765334c-.0816.1493333-.2784.1749333-.4512.0981333-.168-.0725333-.2208-.2474667-.1104-.3968l.48-.7765333-.1728-.0981334c-.1104-.0512-.1968-.1749333-.168-.3029333l.7056-3.0762667v-.0256-.0256h.0288v-.0213333-.0256h.024l8.1936-12.6592c.0816-.12373333.3072-.17493333.4464-.09813333l.0864.0512.4512-.72533334c.2208-.32426666.5904-.5504.984-.6528.3936-.09813333.816-.04693333 1.2096.1536.3648.17493334.6192.4992.7296.84906667s.0576.72533333-.168 1.0752l-.4512.69973333.0864.0512 1.4352.72533334c.168.09813333.2256.27306666.1104.42666666l-1.6608 2.5728c-.0816.12373334-.3072.17493334-.4512.1024-.168-.0768-.2208-.25173333-.1392-.40106666l1.5216-2.32533334-.8736-.45226666-8.0448 12.38186663c-.0288.0256-.0576.0768-.0864.1024l-2.616 2.048c-.1152.0768-.2832.1024-.3936.0512zm4.2192.9770667c-.168 0-.3072-.1493333-.3072-.2986667 0-.1749333.1392-.3029333.3072-.3029333h10.0752c.168 0 .3072.128.3072.3029333 0 .1493334-.1392.2986667-.3072.2986667zm-1.32-3.6266667 7.848-12.1301333-.0576-.0256-2.2512-1.152-7.8768 12.1088z" fill="#fff" fill-rule="evenodd" stroke="#fff" stroke-width=".5" transform="translate(8 6)"/></svg>

<svg xmlns="http://www.w3.org/2000/svg" width="32" height="32" viewBox="0 0 32 32">
  <path fill="#FFF" fill-rule="evenodd" stroke="#FFF" stroke-width=".5" d="M11.84784,2.52714667 L12.32784,1.82314667 C12.43824,1.62688 12.46704,1.40074667 12.40944,1.20021333 C12.35184,0.99968 12.21264,0.824746667 11.98704,0.701013333 C11.76144,0.598613333 11.51184,0.573013333 11.28624,0.624213333 C11.06064,0.675413333 10.83504,0.799146667 10.72464,0.99968 L10.27344,1.69941333 L11.84784,2.52714667 Z M1.46544,14.7298133 L0.90384,17.2087467 L1.18224,17.33248 L1.43664,17.4818133 L3.57744,15.8050133 L1.46544,14.7298133 Z M1.12944,18.0066133 L0.62064,18.7831467 C0.53904,18.93248 0.34224,18.95808 0.16944,18.88128 C0.00144,18.8087467 -0.05136,18.6338133 0.05904,18.48448 L0.53904,17.7079467 L0.36624,17.6098133 C0.25584,17.5586133 0.16944,17.43488 0.19824,17.30688 L0.90384,14.2306133 L0.90384,14.2050133 L0.90384,14.1794133 L0.93264,14.1794133 L0.93264,14.15808 L0.93264,14.13248 L0.95664,14.13248 L9.15024,1.47328 C9.23184,1.34954667 9.45744,1.29834667 9.59664,1.37514667 L9.68304,1.42634667 L10.13424,0.701013333 C10.35504,0.376746667 10.72464,0.150613333 11.11824,0.0482133333 C11.51184,-0.04992 11.93424,0.00128 12.32784,0.201813333 C12.69264,0.376746667 12.94704,0.701013333 13.05744,1.05088 C13.16784,1.40074667 13.11504,1.77621333 12.88944,2.12608 L12.43824,2.82581333 L12.52464,2.87701333 L13.95984,3.60234667 C14.12784,3.70048 14.18544,3.87541333 14.07024,4.02901333 L12.40944,6.60181333 C12.32784,6.72554667 12.10224,6.77674667 11.95824,6.70421333 C11.79024,6.62741333 11.73744,6.45248 11.81904,6.30314667 L13.34064,3.97781333 L12.46704,3.52554667 L4.42224,15.9074133 C4.39344,15.9330133 4.36464,15.9842133 4.33584,16.0098133 L1.71984,18.0578133 C1.60464,18.1346133 1.43664,18.1602133 1.32624,18.1090133 L1.12944,18.0066133 Z M5.34864,18.98368 C5.18064,18.98368 5.04144,18.8343467 5.04144,18.6850133 C5.04144,18.51008 5.18064,18.38208 5.34864,18.38208 L15.42384,18.38208 C15.59184,18.38208 15.73104,18.51008 15.73104,18.6850133 C15.73104,18.8343467 15.59184,18.98368 15.42384,18.98368 L5.34864,18.98368 Z M4.02864,15.3570133 L11.87664,3.22688 L11.81904,3.20128 L9.56784,2.04928 L1.69104,14.15808 L4.02864,15.3570133 Z" transform="translate(8 6)"/>
</svg>
